X: 1597
T: Rast Peşrev
C: Sırrı Abdülbâkî Dede
O: Turkey
F: http://compmusic.upf.edu/node/140
N: rast--pesrev--cifteduyek----sirri_abdulbaki_dede
N: makam= rast
N: form= pesrev
N: usul= cifteduyek = 16/4
M: 16/4
L: 1/16
K: C _1/4B ^f  
Q: 1/4=111
%%MIDI tuningsystem comma53
G2 A2 G2 F2 G4 z4  | A4 G2 F2 G4 A2 G2  | \
w:  1. HANE  |   | 
A4 B2 A2 B4 c2 B2  | c2 d2 c2 B2 c4 d2 e2  | 
w:   |   | 
d2 c2 B8 c4  | B2 A2 G4 z4 c2 B2  | A8 _B4 A4  | \
w:   |   |   | 
G8 A2 _B2 A2 G2  | A2 G2 F2 E2 F8  | 
w:   |   | 
z4 A8 G4  | A2 B2 A2 G2 A4 B4  | z4 G8 A4  | \
w:   |   |   | 
B6 c2 B3 A G4  | A8 _B4 A4  | G4 z4 A2 B2 A2 G2  | 
w:   |   |   | 
G2 F E F2 G2 F3 E D4  | z4 E8 F4  | G4 z4 A4 B2 c2  | \
w:   |   |   | 
B2 A2 G8 (3A2G2A2  | 
w:   | 
G8 F3 E D4  | z4 E8 F4  | G2 A2 G2 F2 G4 A4  | \
w:   |   |   | 
F12 G4  | A6 G2 A2 G2 A2 B2  | 
w:   |   | 
z4 G8 A4  | B2 c2 B2 A2 B4 c4  | z4 A8 B4  | \
w:   |   |   | 
c6 B2 c4 d4  | z4 B2 c2 B4 c4  | 
w:   |   | 
d4 e2 d2 e8  | d4 z4 e2 =f2 e2 d2  | \
w:   |  TESLİM  | 
c4 z4 d2 e2 d2 c2  | B4 z4 c2 d2 c2 B2  | 
w:   |   | 
A4 z4 B2 c2 B2 A2  | G4 z4 A2 B2 A2 G2  | \
w:   |   | 
F6 G2 F3 E D4  | z4 E8 F4  | G8 A4 B2 c2  | 
w:   |   |   | 
B2 A2 G12  | (3A2G2A2 G8 z4  | z4 B8 c4  | \
w:   |   |   | 
c2 d2 c2 B2 B2 c2 B2 A2  | B2 c2 d2 c2 B2 c2 B2 A2  | 
w:   |   | 
B3 A G8 A2 B2  | A2 _B2 A2 G2 A2 G2 F2 G2  | \
w:   |   | 
F4 G4 A4 _B2 A2  | G8 A2 B2 A2 G2  | 
w:   |   | 
F2 E2 F8 d4  | c6 _3/4d2 d6 c2  | B4 z4 c2 _3/4d2 e2 d2  | \
w:   |   |   | 
c2 _3/4d2 c2 B2 A4 B2 c2  | 
w:   | 
B4 c2 d2 c2 B2 A4  | A2 G2 F2 G2 F4 G4  | \
w:   |   | 
A6 G2 A4 B2 c2  | B3 A G8 (3e2d2e2  | 
w:   |   | 
d6 B2 c2 B2 d4  | c2 d2 c2 B2 c4 d2 e2  | \
w:   |   | 
d4 z4 e2 f2 g2 a2  | f4 g8 f2 e2  | 
w:   |   | 
d6 e2 d2 c2 B4  | e2 d2 c2 B2 A6 B2  | \
w:   |   | 
A4 G4 A2 B2 c2 d2  | c4 d8 e4  | d2 e2 d2 c2 c2 d2 c2 B2  | 
w:   |   |   | 
B2 c2 B2 A2 A2 _B2 A2 G2  | F4 E8 F2 G2  | \
w:   |   | 
A2 G2 A2 B2 A4 B4  | G6 c2 B2 c2 A2 B2  | 
w:   |   | 
A2 B2 A2 G2 F3 E D4  | E6 F2 G4 A2 _B2  | \
w:   |   | 
A2 G2 F8 (3A2G2A2  | G12 z4  | z4 G8 A4  | 
w:   |   |   | 
_B6 A2 A2 G2 G2 F2  | G4 z4 F6 G2  | \
w:   |   | 
A8 G6 A2  | B2 A2 B2 c2 B4 c4  | B2 c2 B2 A2 G4 z4  | 
w:   |   |   | 
G2 A2 B2 c2 B4 c4  | z4 A2 A2 A4 B4  | \
w:   |   | 
G8 d8  | z4 B2 c2 B4 c4  | d8 e8  | d2 e2 d2 c2 B8  | 
w:   |   |   |   | 
z4 c2 B2 c4 d2 e2  | d4 c2 B2 A4 z4  | \
w:   |   | 
z4 B2 A2 B4 c4  | B4 A4 G4 z4  | G4 A2 B2 A2 B2 G4  | 
w:   |   |   | 
A2 B2 A2 G2 A4 B4  | G2 A2 B2 c2 B2 c2 A2 B2  | \
w:   |   | 
G2 A2 F2 G2 E2 F2 D4  | 
w:   | 
(3F2E2F2 G8 F4  | G8 A2 _B2 A2 G2  | \
w:   |   | 
A4 B8 d4  | c2 B2 B2 ^A2 B8  | c6 B2 A8  | 
w:   |   |   | 
A2 _B2 A2 B2 c2 d2 c2 B2  | _B2 A2 G8 (3A2G2A2  | \
w:   |   | 
G8 A2 B2 A2 G2  | A2 G2 F8 (3G2F2G2  | 
w:   |   | 
F8 G2 A2 G2 F2  | G2 F2 E8 D4  | E4 F2 E2 F4 G2 F2  | \
w:   |   |   | 
G6 A2 G4 A4  | G4 A2 G2 A4 B2 A2  | 
w:   |   | 
B4 c2 B2 c4 d2 c2  | d4 e2 d2 e4 c4  | \
w:   |   | 
d6 e2 d4 e4  | c2 d2 c2 B2 c4 e4  | 
w:   |   | 
d4 z4 e2 =f2 e2 d2  | c4 z4 d2 e2 d2 c2  | \
w:  TESLİM  |   | 
B4 z4 c2 d2 c2 B2  | A4 z4 B2 c2 B2 A2  | 
w:   |   | 
G4 z4 A2 B2 A2 G2  | F6 G2 F3 E D4  | \
w:   |   | 
z4 E8 F4  | G8 A4 B2 c2  | B2 A2 G12  | 
w:   |   |   | 
(3A2G2A2 G8 z4  | c4 d8 c2 B2  | G2 A2 B2 c2 B2 c2 d4  | \
w:   |  4. HANE  |   | 
c4 d8 e4  | z4 d2 e2 d4 e2 =f2  | 
w:   |   | 
e4 d4 c2 d2 c2 B2  | A4 G4 A4 B4  | c8 d2 e2 d2 c2  | \
w:   |   |   | 
B8 c2 d2 c2 B2  | A6 e2 d2 c2 B2 c2  | 
w:   |   | 
B2 A2 G8 d4  | e4 f2 e2 f4 g2 f2  | g8 f2 g2 f2 e2  | \
w:   |   |   | 
d8 z4 e2 =f2  | e2 =f2 e2 d2 c2 d2 c2 B2  | 
w:   |   | 
d4 z4 e2 =f2 e2 d2  | c4 z4 d2 e2 d2 c2  | \
w:  TESLİM  |   | 
B4 z4 c2 d2 c2 B2  | A4 z4 B2 c2 B2 A2  | 
w:   |   | 
G4 z4 A2 B2 A2 G2  | F6 G2 F3 E D4  | \
w:   |   | 
z4 E8 F4  | G8 A4 B2 c2  | B2 A2 G12  | 
w:   |   |   | 
(3A2G2A2 G8 z4  | |


